X: 1
T: Tomorrow Morning Hornpipe
C: trad.
%D:
R: hornpipe, reel
%S: s=2 b=9(5+4)
S: Fiddle Hell Online 2022-4-5 handout for Tom Morley's Irish Slow Jam
Z: 2022 John Chambers <jc:trillian.mit.edu>
M: 4/4
L: 1/8
P: Play A1A2A1A2 BA2 BA2
K: D
"^A"|: (ufe) \
| "D"dAFA d(fed) | "A"ecAc e(gfe) | "D"fafd [1,3 "G"Bged | "A"c2A2 A2 :|[2,4 "G"Bg"A"ec | "D"d2f2 d2 :|
"^B"|: (vfg) \
| "D"vafdf a2(gf) | "A"gece g2(fe) | "D"fafd "G"Bged | "A"c2A2 "->A2"A2 |]
% "D"dAFA  d(fed) | "A"ecAc e(gfe) | "D"fafd "G"Bg"A"ec | "D"d2f2 d2 :|
